X:1
T:Sliabh Russell
R:jig
M:6/8
L:1/8
K:Ador
|:eAA Bcd|eaf ged|edB cBA|BAG ABd|
|eAA Bcd|eaf ged|edB cBA|BAG A3:|
|:eaa efg|agf ged|eaa efg|fed ~g2g|
|eaa efg|agf ged|edB cBA|BAG A3:|